images/balancer.svg

<svg height="250" viewBox="0 0 250 250" width="250" xmlns="http://www.w3.org/2000/svg"><path d="m250 125c0 69.035156-55.964844 125-125 125s-125-55.964844-125-125 55.964844-125 125-125 125 55.964844 125 125zm0 0" fill="#fff" fill-rule="evenodd"/><path d="m159.644531 132.636719c30.066407 4.441406 51.039063 14.488281 51.039063 26.171875 0 15.796875-38.359375 28.605468-85.683594 28.605468s-85.683594-12.808593-85.683594-28.605468c0-11.683594 20.972656-21.730469 51.039063-26.171875 10.324219 2.097656 22.121093 3.285156 34.644531 3.285156 12.210938 0 23.726562-1.128906 33.863281-3.128906zm0 0"/><path d="m146.6875 85.601562c27.230469 3.027344 46.859375 11.605469 46.859375 21.714844 0 12.640625-30.6875 22.886719-68.546875 22.886719s-68.546875-10.246094-68.546875-22.886719c0-10.109375 19.628906-18.6875 46.859375-21.714844 6.671875 1.089844 13.996094 1.691407 21.6875 1.691407 7.421875 0 14.503906-.5625 20.984375-1.578125zm0 0"/><path d="m176.410156 65.550781c0 9.480469-23.015625 17.164063-51.410156 17.164063s-51.410156-7.683594-51.410156-17.164063 23.015625-17.164062 51.410156-17.164062 51.410156 7.683593 51.410156 17.164062zm0 0"/></svg>

<svg xmlns="http://www.w3.org/2000/svg" xmlns:xlink="http://www.w3.org/1999/xlink" width="250px" height="250px" viewBox="0 0 250 250" version="1.1">
<g id="surface1">
<path style=" stroke:none;fill-rule:evenodd;fill:rgb(100%,100%,100%);fill-opacity:1;" d="M 250 125 C 250 194.035156 194.035156 250 125 250 C 55.964844 250 0 194.035156 0 125 C 0 55.964844 55.964844 0 125 0 C 194.035156 0 250 55.964844 250 125 Z M 250 125 "/>
<path style=" stroke:none;fill-rule:nonzero;fill:rgb(0%,0%,0%);fill-opacity:1;" d="M 159.644531 132.636719 C 189.710938 137.078125 210.683594 147.125 210.683594 158.808594 C 210.683594 174.605469 172.324219 187.414062 125 187.414062 C 77.675781 187.414062 39.316406 174.605469 39.316406 158.808594 C 39.316406 147.125 60.289062 137.078125 90.355469 132.636719 C 100.679688 134.734375 112.476562 135.921875 125 135.921875 C 137.210938 135.921875 148.726562 134.792969 158.863281 132.792969 Z M 159.644531 132.636719 "/>
<path style=" stroke:none;fill-rule:nonzero;fill:rgb(0%,0%,0%);fill-opacity:1;" d="M 146.6875 85.601562 C 173.917969 88.628906 193.546875 97.207031 193.546875 107.316406 C 193.546875 119.957031 162.859375 130.203125 125 130.203125 C 87.140625 130.203125 56.453125 119.957031 56.453125 107.316406 C 56.453125 97.207031 76.082031 88.628906 103.3125 85.601562 C 109.984375 86.691406 117.308594 87.292969 125 87.292969 C 132.421875 87.292969 139.503906 86.730469 145.984375 85.714844 Z M 146.6875 85.601562 "/>
<path style=" stroke:none;fill-rule:nonzero;fill:rgb(0%,0%,0%);fill-opacity:1;" d="M 176.410156 65.550781 C 176.410156 75.03125 153.394531 82.714844 125 82.714844 C 96.605469 82.714844 73.589844 75.03125 73.589844 65.550781 C 73.589844 56.070312 96.605469 48.386719 125 48.386719 C 153.394531 48.386719 176.410156 56.070312 176.410156 65.550781 Z M 176.410156 65.550781 "/>
</g>
</svg>
